X:2
T:The Banshee
T:McMahon's Hornpipe
S:Bernie Waugh
R:Reel
M:4/4
L:1/8
K:G
|:\
"G"G3D "Em"~E3G|"C"AGAB "D"d2Bd|"Em"(3efged BAGA|"C"BAGE "D"~EDD2|
"G"G3D "Em"~E3G|"C"AGAB "D"d2Bd|"Em"(3efged BAGA|"C"BAGE "D"~EDD2:|
|:\
"Am"ea~a2 efge|"Bm"dB~BA B2Bd|"Em"ec~B2 eBgB|eB~B2 "C"dBAB|
"Am"ea~a2 efge|"Bm"dB~BA B2Bd|"Em(A)"(3efged BAGA|"C"BAGE "D"~EDD2:|

